source/images/logo-mobile.svg

<svg width="190" height="38" viewBox="0 0 190 38" fill="none" xmlns="http://www.w3.org/2000/svg">
<g clip-path="url(#clip0_101928_157)">
<path d="M6.0117 20.9349V18.6514C12.6311 17.7242 19.3065 17.2752 25.988 17.3076C25.988 17.9139 25.988 18.5302 25.9286 19.1465C27.8277 18.2867 29.8236 17.6691 31.8709 17.3076C30.5661 13.8643 28.1884 10.9536 25.1037 9.02347C22.0189 7.09332 18.398 6.25055 14.7979 6.62482C11.1978 6.9991 7.81798 8.56967 5.17831 11.095C2.53863 13.6202 0.785353 16.9603 0.188175 20.6014L6.0117 20.9349Z" fill="#FDC305"/>
<path d="M26.9784 24.4813C25.8295 25.7745 25.6017 25.6937 25.6017 27.967C25.6017 28.8865 25.6017 32.9178 25.6017 37.2422C27.8723 35.7125 29.7362 33.6331 31.0271 31.1895C32.3181 28.746 32.9959 26.0143 33 23.2385C32.9869 22.1869 32.8809 21.1385 32.6831 20.1064C30.6312 21.3486 28.7183 22.8156 26.9784 24.4813Z" fill="#FDC305"/>
<path d="M6.29892 25.9867C6.29892 25.9867 2.54532 24.5318 1.15876 24.1377C0.779508 24.0158 0.392293 23.9212 0 23.8548C0.107354 26.7707 0.956315 29.608 2.4635 32.0879C3.97068 34.5679 6.08426 36.6053 8.59664 38L6.29892 25.9867Z" fill="#FDC305"/>
<path d="M26.0375 17.2975C26.0778 11.7189 25.6136 6.1484 24.651 0.656758C24.651 0.656758 24.5123 -0.646619 23.7695 0.414269C23.1861 1.67535 22.7857 3.01637 22.581 4.39513C18.3638 4.11805 14.1305 4.23303 9.93367 4.73865C9.15126 2.02076 7.77461 0.757795 7.11104 1.01039C6.44748 1.26298 6.39796 4.35471 6.39796 4.35471L6.07113 18.6009C12.6882 17.6876 19.3603 17.252 26.0375 17.2975Z" fill="#F06351"/>
<path d="M12.2908 14.1452C12.2908 14.0542 13.2812 14.8322 13.6873 15.0747C14.0933 15.3172 14.2914 15.4991 14.2914 15.6708C14.2914 15.8426 14.024 16.0144 13.6675 16.0144C13.3109 16.0144 12.7662 15.8931 12.6771 15.7416H13.608H13.8953C13.2918 15.2863 12.7521 14.7492 12.2908 14.1452Z" fill="black"/>
<path d="M19.699 14.2563L18.6194 15.6001C18.6194 15.6607 18.4511 15.9537 18.7977 15.9032C19.2079 15.8408 19.6122 15.7428 20.006 15.6102C20.1149 15.6102 20.0753 15.4182 19.8971 15.4384C19.7188 15.4587 19.2137 15.489 18.9067 15.5496L19.7386 14.2765C19.7386 14.2765 19.8079 14.1452 19.699 14.2563Z" fill="black"/>
<path d="M16.5891 20.4095C17.0482 20.2031 17.4277 19.848 17.6687 19.3991C17.946 18.7424 17.6687 18.4797 17.2329 18.3887C16.6366 18.2777 16.0211 18.4004 15.5096 18.7323C15.1233 19.096 15.1729 19.4597 15.4601 19.7426C15.808 20.0116 16.1872 20.2356 16.5891 20.4095Z" fill="black"/>
<path d="M16.193 21.6724C16.082 21.9033 15.9271 22.1094 15.7374 22.2786C15.4553 22.5102 15.1086 22.6446 14.747 22.6626C14.2259 22.705 13.7077 22.5504 13.2911 22.2281C13.0953 22.1077 12.9183 21.9578 12.7662 21.7836C12.6667 21.6715 12.5452 21.582 12.4097 21.5209C12.4097 21.5209 13.1525 25.6634 14.955 26.3201C16.7575 26.9769 17.0744 25.5623 17.1339 25.1784C17.1934 24.0318 16.9102 22.8937 16.3217 21.9149C16.3019 21.6017 16.292 21.8038 16.193 21.6724Z" fill="#F06351"/>
<path d="M14.5687 22.8242C14.1085 22.7583 13.6664 22.597 13.2695 22.3503C12.8727 22.1035 12.5295 21.7766 12.2611 21.3895C12.2479 21.3764 12.2375 21.3606 12.2303 21.3433C12.2232 21.3259 12.2195 21.3073 12.2195 21.2885C12.2195 21.2697 12.2232 21.251 12.2303 21.2337C12.2375 21.2163 12.2479 21.2006 12.2611 21.1874C12.274 21.174 12.2894 21.1633 12.3064 21.156C12.3234 21.1487 12.3417 21.145 12.3601 21.145C12.3786 21.145 12.3969 21.1487 12.4139 21.156C12.4309 21.1633 12.4463 21.174 12.4592 21.1874C12.9591 21.8889 13.71 22.3608 14.5489 22.5009C14.8774 22.4757 15.1952 22.3709 15.476 22.1952C15.7568 22.0194 15.9924 21.7779 16.1633 21.4906L16.3019 21.2986L16.401 21.5108C16.401 21.5108 16.7674 22.2786 17.3914 22.3191C18.0153 22.3595 18.4313 21.9048 18.9859 21.0258C18.9988 21.0123 19.0142 21.0017 19.0312 20.9944C19.0482 20.9871 19.0665 20.9833 19.0849 20.9833C19.1034 20.9833 19.1216 20.9871 19.1386 20.9944C19.1557 21.0017 19.1711 21.0123 19.184 21.0258C19.216 21.0466 19.2389 21.0792 19.2482 21.1168C19.2574 21.1544 19.2521 21.1941 19.2335 21.2279C18.5996 22.2382 17.9757 22.6828 17.3715 22.6424C17.1418 22.6083 16.9226 22.5215 16.7304 22.3885C16.5383 22.2555 16.3782 22.0797 16.2623 21.8745C16.0675 22.1518 15.8142 22.3811 15.5212 22.5455C15.2281 22.7098 14.9026 22.8051 14.5687 22.8242Z" fill="black"/>
<path d="M25.988 19.1162C24.2097 20.7567 22.5327 22.508 20.9667 24.36C19.4104 26.2051 17.6526 27.8627 15.7275 29.3007C15.5096 28.7652 14.1231 27.7751 14.1231 27.7751C14.1231 27.7751 11.0231 25.6129 8.9928 23.9154C7.89756 22.9731 6.86216 21.9607 5.89286 20.8843L3.91207 20.7732C6.77449 25.0224 10.9639 28.1565 15.7968 29.6645C16.6486 29.523 19.0354 27.7852 20.8181 26.3706C22.9167 24.5337 24.8827 22.5448 26.7011 20.4196C27.1988 19.8245 27.5818 19.1389 27.8301 18.3988C26.7407 18.7929 25.988 19.1162 25.988 19.1162Z" fill="#F06351"/>
</g>
<g clip-path="url(#clip1_101928_157)">
<path d="M90.2645 26.5385C89.3696 25.2762 88.9253 23.7627 89 22.2308V15.8462C88.8916 14.2977 89.3081 12.7575 90.1855 11.4615C91.0548 10.4615 92.3983 10 94.374 10C96.3498 10 97.6143 10.4615 98.4045 11.3077C99.2626 12.3794 99.6846 13.7214 99.59 15.0769V16.6154H95.7175V14.8462C95.7488 14.3229 95.6681 13.799 95.4804 13.3077C95.3802 13.1094 95.2212 12.9448 95.024 12.8351C94.8269 12.7255 94.6005 12.6757 94.374 12.6923C93.8208 12.6923 93.4257 12.8462 93.2676 13.2308C93.0888 13.7773 93.0086 14.3499 93.0305 14.9231V23.1538C92.9888 23.71 93.0978 24.267 93.3466 24.7692C93.5047 25.1538 93.8999 25.3077 94.4531 25.3077C95.0063 25.3077 95.3224 25.1538 95.4804 24.7692C95.6601 24.2494 95.7405 23.7019 95.7175 23.1538V21.3077H99.59V22.8462C99.6704 24.2238 99.2508 25.5852 98.4045 26.6923C97.6143 27.6154 96.2707 28.0769 94.374 28.0769C92.4773 28 91.0548 27.5385 90.2645 26.5385Z" fill="#111111"/>
<path d="M104.253 10.2311H108.757L112.077 27.7695H108.441L107.809 24.0772H105.201L104.569 27.7695H100.854L104.253 10.2311ZM107.493 21.7695L106.545 14.9234L105.596 21.7695H107.493Z" fill="#111111"/>
<path d="M114.843 13.1541H112.156V10.2311H121.56V13.0772H118.873V27.7695H114.843V13.1541Z" fill="#111111"/>
<path d="M128.752 10.2311H135.707V12.0772H131.202V17.8465H134.837V19.6157H131.202V26.0772H135.707V27.8465H128.673V10.2311H128.752Z" fill="#111111"/>
<path d="M137.761 10.2311H139.5L144.637 21.8465V10.2311H146.692V27.7695H145.111L139.895 15.7695V27.7695H137.761V10.2311Z" fill="#111111"/>
<path d="M149.063 10.2311H156.017V12.0772H151.513V17.8465H155.148V19.6157H151.513V26.0772H156.017V27.8465H149.063V10.2311Z" fill="#111111"/>
<path d="M158.072 10.231H161.707C163.137 10.1349 164.559 10.5146 165.738 11.308C166.607 12.0003 167.002 13.231 167.002 14.8464C167.002 17.0772 166.291 18.4618 164.79 18.9234L167.318 27.6926H164.869L162.498 19.4618H160.522V27.6926H157.993V10.231H158.072ZM161.549 17.7695C162.364 17.8349 163.176 17.6168 163.841 17.1541C164.315 16.7695 164.552 16.0003 164.552 14.8464C164.574 14.2732 164.494 13.7007 164.315 13.1541C164.137 12.7619 163.832 12.4376 163.446 12.231C162.902 11.9896 162.304 11.8839 161.707 11.9234H160.601V17.6926H161.549V17.7695Z" fill="#111111"/>
<path d="M170.164 26.461C169.342 25.1161 168.956 23.5612 169.057 21.9995V16.1533C169.038 15.0386 169.171 13.9263 169.452 12.8457C169.717 12.0381 170.244 11.3362 170.954 10.8457C171.836 10.3373 172.854 10.0962 173.878 10.1533C175.538 10.1533 176.723 10.538 177.434 11.3841C178.252 12.5014 178.644 13.8619 178.541 15.2303V15.8457H176.17V15.3072C176.173 14.663 176.12 14.0196 176.012 13.3841C175.945 12.9825 175.718 12.623 175.379 12.3841C174.935 12.1003 174.408 11.9653 173.878 11.9995C173.311 11.9642 172.75 12.1279 172.297 12.461C172.111 12.6135 171.959 12.8013 171.851 13.0129C171.742 13.2246 171.679 13.4556 171.665 13.6918C171.561 14.3795 171.508 15.0736 171.507 15.7687V22.3072C171.449 23.3033 171.61 24.3001 171.981 25.2303C172.297 25.8457 172.93 26.0764 173.878 26.0764C174.252 26.1218 174.632 26.0584 174.97 25.8942C175.307 25.7299 175.587 25.4722 175.775 25.1533C176.192 24.1806 176.381 23.1294 176.328 22.0764V20.8457H174.036V19.0764H178.62V27.7687H177.039L176.802 25.7687C176.595 26.439 176.163 27.0226 175.576 27.4268C174.989 27.831 174.28 28.0326 173.562 27.9995C172.909 28.0369 172.256 27.9159 171.663 27.6474C171.07 27.3789 170.555 26.9712 170.164 26.461Z" fill="#111111"/>
<path d="M183.678 21.6154L179.805 10.3077H182.176L184.942 18.7692L187.629 10.3077H190L186.128 21.6154V27.7692H183.757V21.6154H183.678Z" fill="#111111"/>
</g>
<defs>
<clipPath id="clip0_101928_157">
<rect width="33" height="38" fill="white"/>
</clipPath>
<clipPath id="clip1_101928_157">
<rect width="101" height="18" fill="white" transform="translate(89 10)"/>
</clipPath>
</defs>
</svg>

<svg viewBox="0 0 190 38" fill="none" xmlns="http://www.w3.org/2000/svg"><g clip-path="url(#a)"><path d="M6.01 20.93v-2.28c6.62-.93 13.3-1.37 19.98-1.34 0 .6 0 1.22-.06 1.84a24.9 24.9 0 0 1 5.94-1.84 16.77 16.77 0 0 0-6.77-8.29 16.25 16.25 0 0 0-19.92 2.08 16.95 16.95 0 0 0-5 9.5l5.83.33Zm20.97 3.55c-1.15 1.3-1.38 1.21-1.38 3.49v9.27a16.7 16.7 0 0 0 5.43-6.05 17.08 17.08 0 0 0 1.97-7.95 17.3 17.3 0 0 0-.32-3.13 32.86 32.86 0 0 0-5.7 4.37Zm-20.68 1.51s-3.75-1.46-5.14-1.85a8.33 8.33 0 0 0-1.16-.29c.1 2.92.96 5.76 2.46 8.24a16.63 16.63 0 0 0 6.14 5.91l-2.3-12.01Z" fill="#FDC305"/><path d="M26.04 17.3a92.52 92.52 0 0 0-1.39-16.64s-.14-1.3-.88-.25c-.58 1.27-.98 2.6-1.19 3.99a68.3 68.3 0 0 0-12.65.34c-.78-2.72-2.16-3.98-2.82-3.73-.66.25-.71 3.34-.71 3.34l-.33 14.25a139.1 139.1 0 0 1 19.97-1.3Z" fill="#F06351"/><path d="M12.3 14.15c0-.1.98.68 1.39.92.4.25.6.43.6.6 0 .17-.27.34-.62.34-.36 0-.9-.12-1-.27h1.23c-.6-.45-1.15-1-1.6-1.6Zm7.4.11-1.08 1.34c0 .06-.17.35.18.3.4-.06.81-.16 1.2-.29.11 0 .08-.2-.1-.17-.18.02-.69.05-1 .11l.84-1.27s.07-.13-.04-.02Zm-3.11 6.15c.46-.2.84-.56 1.08-1.01.28-.66 0-.92-.44-1.01-.6-.11-1.2.01-1.72.34-.39.37-.34.73-.05 1.01.35.27.73.5 1.13.67Z" fill="#000"/><path d="M16.2 21.67a1.7 1.7 0 0 1-1.45.99 2.1 2.1 0 0 1-1.46-.43c-.2-.12-.37-.27-.52-.45-.1-.1-.22-.2-.36-.26 0 0 .74 4.14 2.54 4.8 1.8.66 2.12-.76 2.18-1.14a5.76 5.76 0 0 0-.8-3.27c-.03-.3-.04-.1-.14-.24Z" fill="#F06351"/><path d="M14.57 22.82a3.36 3.36 0 0 1-2.35-1.53.14.14 0 0 1 .09-.13.14.14 0 0 1 .15.03c.5.7 1.25 1.17 2.09 1.31a2.04 2.04 0 0 0 1.61-1l.14-.2.1.21s.37.77 1 .8c.62.05 1.03-.4 1.59-1.28a.14.14 0 0 1 .2 0c.03.02.05.05.06.09 0 .03 0 .07-.02.1-.63 1.02-1.25 1.46-1.86 1.42a1.52 1.52 0 0 1-1.1-.77 2.25 2.25 0 0 1-1.7.95Z" fill="#000"/><path d="M25.99 19.12a58.7 58.7 0 0 0-5.02 5.24 31.58 31.58 0 0 1-5.24 4.94c-.22-.53-1.6-1.52-1.6-1.52s-3.1-2.17-5.14-3.86a34.1 34.1 0 0 1-3.1-3.04l-1.98-.1a22.39 22.39 0 0 0 11.89 8.88c.85-.14 3.24-1.87 5.02-3.29a58.15 58.15 0 0 0 5.88-5.95c.5-.6.88-1.28 1.13-2.02-1.09.4-1.84.72-1.84.72Z" fill="#F06351"/></g><g clip-path="url(#b)" fill="#111"><path d="M90.26 26.54a6.87 6.87 0 0 1-1.26-4.3v-6.4c-.1-1.54.3-3.08 1.19-4.38.86-1 2.2-1.46 4.18-1.46 1.98 0 3.24.46 4.03 1.3a5.42 5.42 0 0 1 1.19 3.78v1.54h-3.87v-1.77a3.7 3.7 0 0 0-.24-1.54 1.16 1.16 0 0 0-1.1-.62c-.56 0-.95.16-1.11.54a4.85 4.85 0 0 0-.24 1.7v8.22c-.04.56.07 1.12.32 1.62.15.38.55.54 1.1.54.56 0 .87-.16 1.03-.54.18-.52.26-1.07.24-1.62v-1.84h3.87v1.54a5.77 5.77 0 0 1-1.19 3.84c-.79.93-2.13 1.39-4.03 1.39-1.9-.08-3.32-.54-4.1-1.54Zm13.99-16.31h4.5l3.33 17.54h-3.64l-.63-3.7h-2.6l-.64 3.7h-3.72l3.4-17.54Zm3.24 11.54-.94-6.85-.95 6.85h1.9Zm7.35-8.62h-2.68v-2.92h9.4v2.85h-2.69v14.69h-4.03v-14.62Zm13.91-2.92h6.96v1.85h-4.5v5.77h3.63v1.77h-3.64v6.46h4.5v1.77h-7.03v-17.62h.08Zm9.01 0h1.74l5.14 11.62v-11.62h2.05v17.54h-1.58l-5.22-12v12h-2.13v-17.54Zm11.3 0h6.96v1.85h-4.5v5.77h3.63v1.77h-3.64v6.46h4.5v1.77h-6.95v-17.62Zm9.01 0h3.64c1.43-.1 2.85.28 4.03 1.08.87.69 1.26 1.92 1.26 3.54 0 2.23-.7 3.61-2.21 4.07l2.53 8.77h-2.45l-2.37-8.23h-1.98v8.23h-2.53v-17.46h.08Zm3.48 7.54c.81.06 1.63-.15 2.3-.62.47-.38.7-1.15.7-2.3a4.84 4.84 0 0 0-.24-1.7 1.96 1.96 0 0 0-.86-.92 3.7 3.7 0 0 0-1.74-.3h-1.1v5.76h.94v.08Zm8.61 8.69a7.6 7.6 0 0 1-1.1-4.46v-5.85a12.3 12.3 0 0 1 .4-3.3c.26-.81.78-1.51 1.5-2 .88-.51 1.9-.75 2.92-.7 1.66 0 2.84.39 3.55 1.23a5.77 5.77 0 0 1 1.11 3.85v.62h-2.37v-.54c0-.65-.05-1.29-.16-1.93-.06-.4-.3-.76-.63-1a2.5 2.5 0 0 0-1.5-.38 2.42 2.42 0 0 0-1.58.46 1.73 1.73 0 0 0-.64 1.23c-.1.69-.15 1.38-.15 2.08v6.54c-.06 1 .1 1.99.47 2.92.32.62.95.85 1.9.85a1.96 1.96 0 0 0 1.89-.93 6.9 6.9 0 0 0 .56-3.07v-1.23h-2.3v-1.77h4.59v8.69h-1.58l-.24-2c-.2.67-.64 1.25-1.22 1.66-.6.4-1.3.6-2.02.57a4.05 4.05 0 0 1-3.4-1.54Zm13.52-4.84-3.88-11.31h2.38l2.76 8.46 2.69-8.46h2.37l-3.87 11.3v6.16h-2.37v-6.15h-.08Z"/></g><defs><clipPath id="a"><path fill="#fff" d="M0 0h33v38h-33z"/></clipPath><clipPath id="b"><path fill="#fff" transform="translate(89 10)" d="M0 0h101v18h-101z"/></clipPath></defs></svg>
